build/img/icons/cry-gray.svg

<svg width="24" height="24" viewBox="0 0 24 24" fill="none" xmlns="http://www.w3.org/2000/svg">
<path d="M12 2C17.523 2 22 6.477 22 12C22.0024 13.5614 21.6376 15.1016 20.935 16.496C20.8616 16.2113 20.7256 15.9465 20.537 15.721L20.414 15.586L19 14.172L17.586 15.586L17.469 15.713C17.2156 16.0142 17.0568 16.3834 17.0123 16.7745C16.9678 17.1655 17.0397 17.561 17.2189 17.9114C17.3982 18.2618 17.6768 18.5515 18.02 18.7443C18.3631 18.937 18.7555 19.0242 19.148 18.995C18.2175 19.9477 17.1056 20.7044 15.878 21.2206C14.6503 21.7367 13.3317 22.0017 12 22C6.477 22 2 17.523 2 12C2 6.477 6.477 2 12 2ZM12 15C10.62 15 9.37 15.56 8.466 16.463L8.3 16.637L9.245 17.497C10.035 17.182 10.982 17 12 17C12.905 17 13.754 17.144 14.486 17.396L14.755 17.496L15.7 16.636C15.2318 16.1199 14.6606 15.7077 14.0233 15.426C13.3861 15.1442 12.6968 14.9991 12 15ZM8.5 10C8.10218 10 7.72064 10.158 7.43934 10.4393C7.15804 10.7206 7 11.1022 7 11.5C7 11.8978 7.15804 12.2794 7.43934 12.5607C7.72064 12.842 8.10218 13 8.5 13C8.89782 13 9.27936 12.842 9.56066 12.5607C9.84196 12.2794 10 11.8978 10 11.5C10 11.1022 9.84196 10.7206 9.56066 10.4393C9.27936 10.158 8.89782 10 8.5 10ZM15.5 10C15.1022 10 14.7206 10.158 14.4393 10.4393C14.158 10.7206 14 11.1022 14 11.5C14 11.8978 14.158 12.2794 14.4393 12.5607C14.7206 12.842 15.1022 13 15.5 13C15.8978 13 16.2794 12.842 16.5607 12.5607C16.842 12.2794 17 11.8978 17 11.5C17 11.1022 16.842 10.7206 16.5607 10.4393C16.2794 10.158 15.8978 10 15.5 10Z" fill="#C4C4C4"/>
</svg>

<svg width="24" height="24" fill="none" xmlns="http://www.w3.org/2000/svg">
    <path d="M12 2c5.523 0 10 4.477 10 10a9.958 9.958 0 0 1-1.065 4.496 1.978 1.978 0 0 0-.398-.775l-.123-.135L19 14.172l-1.414 1.414-.117.127a2 2 0 0 0 1.679 3.282A9.976 9.976 0 0 1 12 22C6.477 22 2 17.523 2 12S6.477 2 12 2zm0 13c-1.38 0-2.63.56-3.534 1.463l-.166.174.945.86C10.035 17.182 10.982 17 12 17c.905 0 1.754.144 2.486.396l.269.1.945-.86A4.985 4.985 0 0 0 12 15zm-3.5-5a1.5 1.5 0 1 0 0 3 1.5 1.5 0 0 0 0-3zm7 0a1.5 1.5 0 1 0 0 3 1.5 1.5 0 0 0 0-3z" fill="#C4C4C4"/>
</svg>
